public/wxt.svg

<svg width="72" height="72" viewBox="0 0 72 72" fill="none" xmlns="http://www.w3.org/2000/svg">
<g clip-path="url(#clip0_305_516)">
<g clip-path="url(#clip1_305_516)">
<path d="M49.0229 69.1875C54.1272 69.1875 58.265 65.0497 58.265 59.9454V50.7033H59.9454C65.0497 50.7033 69.1875 46.5655 69.1875 41.4612C69.1875 36.357 65.0497 32.2191 59.9454 32.2191H58.265V22.9771C58.265 17.8728 54.1272 13.735 49.0229 13.735H39.7809V12.0546C39.7809 6.95032 35.643 2.8125 30.5388 2.8125C25.4345 2.8125 21.2967 6.95032 21.2967 12.0546V13.735H12.0546C6.95032 13.735 2.8125 17.8728 2.8125 22.9771V32.2191H4.49288C9.59714 32.2191 13.735 36.357 13.735 41.4612C13.735 46.5655 9.59714 50.7033 4.49288 50.7033H2.8125V69.1875H21.2967V67.5071C21.2967 62.4029 25.4345 58.265 30.5388 58.265C35.643 58.265 39.7809 62.4029 39.7809 67.5071V69.1875H49.0229Z" stroke="#67D55E" stroke-width="5.625"/>
</g>
</g>
<defs>
<clipPath id="clip0_305_516">
<rect width="72" height="72" fill="white"/>
</clipPath>
<clipPath id="clip1_305_516">
<rect width="72" height="72" fill="white"/>
</clipPath>
</defs>
</svg>

<svg xmlns="http://www.w3.org/2000/svg" width="72" height="72" fill="none" viewBox="0 0 72 72"><g clip-path="url(#a)"><g clip-path="url(#b)"><path stroke="#67d55e" stroke-width="5.625" d="M49.023 69.188a9.24 9.24 0 0 0 9.242-9.243v-9.242h1.68a9.242 9.242 0 1 0 0-18.484h-1.68v-9.242a9.24 9.24 0 0 0-9.242-9.242H39.78v-1.68a9.242 9.242 0 0 0-18.484 0v1.68h-9.242a9.24 9.24 0 0 0-9.242 9.242v9.242h1.68a9.242 9.242 0 0 1 0 18.484h-1.68v18.484h18.484v-1.68a9.242 9.242 0 0 1 18.484 0v1.68z"/></g></g><defs><clipPath id="a"><path fill="#fff" d="M0 0h72v72H0z"/></clipPath><clipPath id="b"><path fill="#fff" d="M0 0h72v72H0z"/></clipPath></defs></svg>
